X:7
T:Polska
S:efter Anders Peter Roos
O:Hägerstad, Östergötland 
R:Polska
B:Ög 17
B:http://www.smus.se/earkiv/fmk/browselarge.php?lang=sw&katalogid=%C3%96g+17&bildnr=00009
M:3/4
L:1/8
K:C
c2 B2 c2 | dc Bc d2 | fa gf ed | cB/2c/2 dB G2 | c2 B2 c2 | dc Bc d2 | fa gf ed | cB/2c/2 d2 c2 ::
e2 c2 e2 | cd/2c/2 Bd d2 | ee cc ee | dd/2c/2 Bc/2A/2 G2 | c2 B2 c2 | dc Bc de | fa gf ed | cB/2c/2 d2 c2 :|]

